X:1
T: The Humors of Ballinafauna
C:
R:Jig
Q:180
K:Am
M:6/8
L:1/16
G2|E4A2 A4B2|c4A2 B2G2E2|G2A2G2 E2D2E2|G2A2G2 G2E2D2|E2^F2G2 A4B2|c4A2 B2c2d2|e2g2e2 d2B2G2|A6A4G2|
E4A2 A4B2|c4A2 B2G2E2|G2A2G2 E2D2E2|G2A2G2 G2E2D2|E2^F2G2 A4B2|c4A2 B2c2d2|e2g2e2 d2B2G2|A6A4g2|
a4e2 a4e2|a2b2c'2 b2a2b2|g4e2 g4e2|e2d2c2 B2A2G2|a4e2 a4e2|a2b2c'2 b2a2b2|g2f2e2 d2B2G2|A6A4g2|
a4e2 a4e2|a2b2c'2 b2a2b2|g4e2 g4e2|e2d2c2 B2A2G2|a4e2 a4e2|a2b2c'2 b2a2b2|g2f2e2 d2B2G2|A6A4||
